!!!!SEGMENT: pl-wnifc--13846--001-142_anonim--piesni-polskie-i-ruskie-ludu-galicyjskiego-142-kozak-konia-napawaw.krn
!!!cenid: 18xx:3364
!!!COM: Anonim
!!!COM-rismID: pe30004985
!!!CDT:
!!!CNT:
!!!GTL: Pieśni polskie i ruskie ludu galicyjskiego
!!!OTL: 142. Kozak konia napawaw
!!!OMV: 142
!!!PDT: 1833
!!!AGN:
!!!YEC: Copyright 2022 Narodowy Instytut Fryderyka Chopina (https://polishscores.org)
!!!YEM: License CC-BY-4.0 (https://creativecommons.org/licenses/by/4.0)
!!!SMS-siglum: PL-Wnifc
!!!SMS-shelfmark: 13846
!!!SMS-shelfwork: 001-142 G
!!!NIFC-rismSourceID: 1001036701
!!!NIFC-rismChildID: 1001039674
!!!NIFC-islandoraID: nifc:210326
!!!URL-pdf-islandora: https://repozytorium.nifc.pl/islandora/object/nifc%3A210326/datastream/PDF/view
!!!URL-scan:
!!!IIIF:
!!!ONB-nifc:
!!!OMD: Moderato è  con leggerezza
!!!AIN: 1 piano 1 soprn
!!!key: C
**kern	**kern	**dynam	**kern	**text
*group2	*group2	*	*group1	*
*part2	*part2	*	*part1	*
*staff3	*staff2	*	*staff1	*
*I"[Piano]	*I"[Piano]	*	*I"[Soprano]	*
*Ipiano	*Ipiano	*	*Isoprn	*
*ICklav	*ICklav	*	*ICvox	*
*IGacmp	*IGacmp	*	*IGsolo	*
*clefF4	*clefG2	*	*clefG2	*
*k[]	*k[]	*	*k[]	*
*C:	*C:	*	*C:	*
*M2/4	*M2/4	*	*M2/4	*
=1-	=1-	=1-	=1-	=1-
!	!LO:TX:b:t=|:problem	!	!LO:TX:b:B:rj:t=E.245	!
4GGG/ 4GG/	8g/L	.	8g/	Ko-
.	8g/	.	8g/	-zak
.	(<16qa/LL	.	.	.
.	16qg/	.	.	.
.	16qf#X/	.	.	.
.	16qg/JJ)	.	.	.
4G\ 4d\	8fn/ 8a/	.	8a/	ko-
.	8f/J 8b/	.	8b/	-nia
=2	=2	=2	=2	=2
!	!LO:TX:b:t=|:problem	!	!	!
4CC/ 4C/	8e/L 8cc/	.	8cc\	na-
!	!LO:TX:b:t=|:problem	!	!	!
.	8e/J 8cc/	.	8cc\	-pa-
!	!	!LO:DY:rj	!	!
4C\ 4G\ 4c\	4e^</ 4g/ 4ee/	sf	4ee\	-waw,
!!LO:LB:g=original
=3	=3	=3	=3	=3
4GGG/ 4GG/	8g/L	.	8g/	dziu-
.	8g/J	.	8g/	-ba
4G\ 4d\	8f#X/L 8a/	.	8a/	wo-
.	8fn/J 8b/	.	8b/	-du
=4	=4	=4	=4	=4
4CC/ 4C/	4e^</ 4cc/	.	4cc\	bra-
!	!LO:TX:a:t=P:problem=ubytek w papierze	!	!	!
4C\ 4G\ 4c\	4g^</ 4cc/	.	4ee\	-ła,
!!LO:LB:g=original
=5!|:	=5!|:	=5!|:	=5!|:	=5!|:
4GG/	8g\L 8b\ 8dd\	.	8dd\	ko-
.	8dd\J 8ff\	.	8ff\	-zak
.	(<8qgg/	.	(<8qgg/	.
4G\ 4B\ 4d\	8g\L) 8ff\	.	8ff\)	so-
.	16ee\L	.	(>16ee\LL	-bi
.	16dd\JJ	.	16dd\JJ)	.
=6	=6	=6	=6	=6
4CC/ 4C/	(>16cc\LL	.	(>16cc\LL	za-
.	16b\JJ)	.	16b\JJ)	.
.	(>\16ccLL	.	(>16cc\LL	-śpi-
.	16dd\JJ)	.	16dd\JJ)	.
4C\ 4G\ 4c\	4ee\	.	4ee\	-waw,
!!LO:LB:g=original
=7	=7	=7	=7	=7
4GGG/ 4GG/	8d/L 8f/ 8g/	.	8g/	dziu-
.	8d/ 8f/ 8g/	.	8g/	-ba
4GG/ 4G/	8d/ 8f/ 8a/	.	8a/	za-
.	8d/J 8f/ 8b/	.	8b/	-pła-
=8	=8	=8	=8	=8
4CC/ 4C/	4e/ 4cc/	.	4cc\	-ka-
4C\ 4G\ 4c\	4e/ 4cc/	.	4cc\	-ła.
==	==	==	==	==
*-	*-	*-	*-	*-
!!!RDF**kern: > = above
!!!RDF**kern: < = below
!!!system-decoration: g1,[{g2}]
!!!ENC: Jędrzej Mróz
!!!END: 2021-11-12
